X:035
T:The Thornton Jig
C:Donald Cameron
D:Smalltalk (Greentrax 1994)
Z:Nigel Gatherer
M:6/8
L:1/8
K:G
A2G|:F2D DED|G2A BAG|F2D DED|E2c cGE|F2D DED|
G2A BAF|GBG FdF|E2c cGE::F2A ABA|ABc dAG|
F2A ABc|E2c cGE|F2A ABA|ABc dAF|GBG FdF|E2c cGE:|
To: IrTrad Posting <IRTRAD-L@LISTSERV.HEANET.IE>
Subject: Re: Bernard Flaherty's "Trip to Sligo"
Date: Thu, 15 Apr 1999 14:20:00
Source: mail.irtrad-l@listserv.heanet.ie
<end>
<start>
